luts/generated/Car_Blue_5.cube
TITLE "Car_Blue"
LUT_3D_SIZE 33
DOMAIN_MIN 0.0 0.0 0.0
DOMAIN_MAX 1.0 1.0 1.0
0.00000000 0.00000000 0.00000000
0.00000000 0.00000000 0.16559987
0.00000000 0.00000000 0.21764554
0.00000000 0.00000000 0.24603409
0.00000000 0.00000000 0.27915406
0.00000000 0.00000000 0.30754262
0.00000000 0.00000000 0.33593118
0.00000000 0.00000000 0.35485688
0.00000000 0.00000000 0.37851399
0.00000000 0.00000000 0.40217113
0.00000000 0.00000000 0.42582822
0.00000000 0.00000000 0.45894822
0.00000000 0.00000000 0.48260531
0.00000000 0.00000000 0.50153100
0.00000000 0.00000000 0.52518815
0.00000000 0.00000000 0.54884529
0.00000000 0.00000000 0.59142804
0.00000000 0.00000000 0.63401097
0.00000000 0.00000000 0.69078803
0.00000000 0.00000000 0.77595365
0.00000000 0.00000000 0.85165644
0.00000000 0.00000000 0.89897072
0.00000000 0.00000000 0.92262787
0.00000000 0.00000000 0.95574790
0.00000000 0.00000000 0.98886776
0.00000000 0.00000000 1.00000000
0.00000000 0.00000000 1.00000000
0.00000000 0.00000000 1.00000000
0.00000000 0.00000000 1.00000000
0.00000000 0.00000000 1.00000000
0.00000000 0.00000000 1.00000000
0.00000000 0.00000000 1.00000000
0.00000000 0.00000000 1.00000000
0.00000000 0.05354609 0.00000000
0.00000000 0.05125609 0.16101161
0.00000000 0.05053637 0.21305728
0.00000000 0.05014380 0.24144582
0.00000000 0.04968580 0.27456579
0.00000000 0.04929323 0.30295438
0.00000000 0.04890065 0.33134288
0.00000000 0.04863894 0.35026860
0.00000000 0.04831180 0.37392572
0.00000000 0.04798465 0.39758286
0.00000000 0.04765751 0.42123997
0.00000000 0.04719951 0.45435995
0.00000000 0.04687237 0.47801706
0.00000000 0.04661065 0.49694276
0.00000000 0.04628351 0.52059984
0.00000000 0.04595637 0.54425699
0.00000000 0.04536751 0.58683985
0.00000000 0.04477865 0.62942266
0.00000000 0.04399350 0.68619978
0.00000000 0.04281579 0.77136546
0.00000000 0.04176893 0.84706825
0.00000000 0.04111464 0.89438242
0.00000000 0.04078750 0.91803956
0.00000000 0.04032949 0.95115948
0.00000000 0.03987149 0.98427957
0.00000000 0.03947892 1.00000000
0.00000000 0.03915178 1.00000000
0.00000000 0.03869378 1.00000000
0.00000000 0.03836663 1.00000000
0.00000000 0.03817035 1.00000000
0.00000000 0.03803949 1.00000000
0.00000000 0.03784321 1.00000000
0.00000000 0.03686177 1.00000000
0.00000000 0.07825968 0.00000000
0.00000000 0.07596967 0.15889396
0.00000000 0.07524995 0.21093962
0.00000000 0.07485738 0.23932816
0.00000000 0.07439938 0.27244815
0.00000000 0.07400681 0.30083674
0.00000000 0.07361424 0.32922527
0.00000000 0.07335252 0.34815094
0.00000000 0.07302538 0.37180808
0.00000000 0.07269824 0.39546522
0.00000000 0.07237110 0.41912234
0.00000000 0.07191309 0.45224231
0.00000000 0.07158595 0.47589943
0.00000000 0.07132424 0.49482512
0.00000000 0.07099709 0.51848221
0.00000000 0.07066995 0.54213935
0.00000000 0.07008109 0.58472216
0.00000000 0.06949223 0.62730503
0.00000000 0.06870708 0.68408215
0.00000000 0.06752937 0.76924777
0.00000000 0.06648251 0.84495056
0.00000000 0.06582823 0.89226478
0.00000000 0.06550108 0.91592193
0.00000000 0.06504308 0.94904196
0.00000000 0.06458507 0.98216182
0.00000000 0.06419250 1.00000000
0.00000000 0.06386536 1.00000000
0.00000000 0.06340736 1.00000000
0.00000000 0.06308022 1.00000000
0.00000000 0.06288394 1.00000000
0.00000000 0.06275308 1.00000000
0.00000000 0.06255679 1.00000000
0.00000000 0.06157536 1.00000000
0.00000000 0.09885432 0.00000000
0.00000000 0.09656432 0.15712924
0.00000000 0.09584460 0.20917492
0.00000000 0.09545203 0.23756345
0.00000000 0.09499404 0.27068344
0.00000000 0.09460146 0.29907200
0.00000000 0.09420889 0.32746056
0.00000000 0.09394717 0.34638625
0.00000000 0.09362002 0.37004334
0.00000000 0.09329288 0.39370048
0.00000000 0.09296574 0.41735765
0.00000000 0.09250774 0.45047757
0.00000000 0.09218059 0.47413474
0.00000000 0.09191888 0.49306044
0.00000000 0.09159174 0.51671749
0.00000000 0.09126460 0.54037458
0.00000000 0.09067573 0.58295751
0.00000000 0.09008688 0.62554032
0.00000000 0.08930174 0.68231744
0.00000000 0.08812402 0.76748312
0.00000000 0.08707716 0.84318584
0.00000000 0.08642287 0.89050007
0.00000000 0.08609573 0.91415721
0.00000000 0.08563773 0.94727719
0.00000000 0.08517973 0.98039716
0.00000000 0.08478715 1.00000000
0.00000000 0.08446001 1.00000000
0.00000000 0.08400201 1.00000000
0.00000000 0.08367487 1.00000000
0.00000000 0.08347858 1.00000000
0.00000000 0.08334772 1.00000000
0.00000000 0.08315144 1.00000000
0.00000000 0.08217000 1.00000000
0.00000000 0.12356791 0.00000000
0.00000000 0.12127789 0.15501158
0.00000000 0.12055818 0.20705724
0.00000000 0.12016561 0.23544580
0.00000000 0.11970761 0.26856574
0.00000000 0.11931504 0.29695433
0.00000000 0.11892246 0.32534286
0.00000000 0.11866075 0.34426856
0.00000000 0.11833360 0.36792570
0.00000000 0.11800646 0.39158282
0.00000000 0.11767931 0.41523996
0.00000000 0.11722132 0.44835991
0.00000000 0.11689418 0.47201705
0.00000000 0.11663246 0.49094275
0.00000000 0.11630531 0.51459986
0.00000000 0.11597817 0.53825694
0.00000000 0.11538931 0.58083987
0.00000000 0.11480045 0.62342262
0.00000000 0.11401531 0.68019980
0.00000000 0.11283760 0.76536530
0.00000000 0.11179074 0.84106809
0.00000000 0.11113644 0.88838243
0.00000000 0.11080930 0.91203958
0.00000000 0.11035131 0.94515955
0.00000000 0.10989331 0.97827947
0.00000000 0.10950074 1.00000000
0.00000000 0.10917360 1.00000000
0.00000000 0.10871559 1.00000000
0.00000000 0.10838845 1.00000000
0.00000000 0.10819216 1.00000000
0.00000000 0.10806131 1.00000000
0.00000000 0.10786502 1.00000000
0.00000000 0.10688359 1.00000000
0.00000000 0.15240042 0.00000000
0.00000000 0.15011041 0.15254098
0.00000000 0.14939070 0.20458664
0.00000000 0.14899813 0.23297518
0.00000000 0.14854012 0.26609516
0.00000000 0.14814755 0.29448375
0.00000000 0.14775498 0.32287225
0.00000000 0.14749326 0.34179798
0.00000000 0.14716612 0.36545509
0.00000000 0.14683898 0.38911223
0.00000000 0.14651184 0.41276938
0.00000000 0.14605384 0.44588932
0.00000000 0.14572670 0.46954644
0.00000000 0.14546499 0.48847213
0.00000000 0.14513783 0.51212925
0.00000000 0.14481069 0.53578639
0.00000000 0.14422183 0.57836920
0.00000000 0.14363298 0.62095213
0.00000000 0.14284784 0.67772913
0.00000000 0.14167011 0.76289481
0.00000000 0.14062324 0.83859760
0.00000000 0.13996896 0.88591182
0.00000000 0.13964182 0.90956897
0.00000000 0.13918382 0.94268888
0.00000000 0.13872582 0.97580892
0.00000000 0.13833325 1.00000000
0.00000000 0.13800611 1.00000000
0.00000000 0.13754810 1.00000000
0.00000000 0.13722096 1.00000000
0.00000000 0.13702467 1.00000000
0.00000000 0.13689381 1.00000000
0.00000000 0.13669753 1.00000000
0.00000000 0.13571610 1.00000000
0.00000000 0.16887614 0.00000000
0.00000000 0.16658613 0.15112920
0.00000000 0.16586640 0.20317486
0.00000000 0.16547385 0.23156342
0.00000000 0.16501585 0.26468340
0.00000000 0.16462328 0.29307199
0.00000000 0.16423070 0.32146049
0.00000000 0.16396898 0.34038618
0.00000000 0.16364184 0.36404333
0.00000000 0.16331470 0.38770047
0.00000000 0.16298756 0.41135758
0.00000000 0.16252956 0.44447756
0.00000000 0.16220242 0.46813467
0.00000000 0.16194069 0.48706037
0.00000000 0.16161355 0.51071751
0.00000000 0.16128640 0.53437459
0.00000000 0.16069755 0.57695740
0.00000000 0.16010870 0.61954027
0.00000000 0.15932354 0.67631739
0.00000000 0.15814583 0.76148301
0.00000000 0.15709896 0.83718586
0.00000000 0.15644468 0.88450003
0.00000000 0.15611754 0.90815717
0.00000000 0.15565954 0.94127715
0.00000000 0.15520154 0.97439712
0.00000000 0.15480897 1.00000000
0.00000000 0.15448183 1.00000000
0.00000000 0.15402383 1.00000000
0.00000000 0.15369669 1.00000000
0.00000000 0.15350039 1.00000000
0.00000000 0.15336955 1.00000000
0.00000000 0.15317325 1.00000000
0.00000000 0.15219182 1.00000000
0.00000000 0.18535186 0.00000000
0.00000000 0.18306185 0.14971744
0.00000000 0.18234213 0.20176311
0.00000000 0.18194957 0.23015165
0.00000000 0.18149155 0.26327163
0.00000000 0.18109900 0.29166019
0.00000000 0.18070643 0.32004872
0.00000000 0.18044470 0.33897442
0.00000000 0.18011756 0.36263156
0.00000000 0.17979042 0.38628867
0.00000000 0.17946328 0.40994579
0.00000000 0.17900528 0.44306579
0.00000000 0.17867814 0.46672291
0.00000000 0.17841642 0.48564860
0.00000000 0.17808926 0.50930572
0.00000000 0.17776212 0.53296286
0.00000000 0.17717327 0.57554561
0.00000000 0.17658442 0.61812854
0.00000000 0.17579927 0.67490560
0.00000000 0.17462155 0.76007122
0.00000000 0.17357470 0.83577406
0.00000000 0.17292041 0.88308823
0.00000000 0.17259327 0.90674543
0.00000000 0.17213526 0.93986535
0.00000000 0.17167726 0.97298533
0.00000000 0.17128469 1.00000000
0.00000000 0.17095755 1.00000000
0.00000000 0.17049955 1.00000000
0.00000000 0.17017241 1.00000000
0.00000000 0.16997612 1.00000000
0.00000000 0.16984527 1.00000000
0.00000000 0.16964898 1.00000000
0.00000000 0.16866754 1.00000000
0.00000000 0.19358970 0.00000000
0.00000000 0.19129972 0.14901154
0.00000000 0.19058000 0.20105723
0.00000000 0.19018742 0.22944577
0.00000000 0.18972942 0.26256573
0.00000000 0.18933685 0.29095429
0.00000000 0.18894428 0.31934285
0.00000000 0.18868257 0.33826855
0.00000000 0.18835542 0.36192569
0.00000000 0.18802828 0.38558280
0.00000000 0.18770112 0.40923989
0.00000000 0.18724312 0.44235986
0.00000000 0.18691599 0.46601701
0.00000000 0.18665427 0.48494270
0.00000000 0.18632713 0.50859982
0.00000000 0.18599999 0.53225696
0.00000000 0.18541114 0.57483971
0.00000000 0.18482226 0.61742264
0.00000000 0.18403712 0.67419970
0.00000000 0.18285941 0.75936532
0.00000000 0.18181255 0.83506805
0.00000000 0.18115827 0.88238239
0.00000000 0.18083112 0.90603954
0.00000000 0.18037312 0.93915951
0.00000000 0.17991512 0.97227943
0.00000000 0.17952254 1.00000000
0.00000000 0.17919540 1.00000000
0.00000000 0.17873740 1.00000000
0.00000000 0.17841026 1.00000000
0.00000000 0.17821398 1.00000000
0.00000000 0.17808311 1.00000000
0.00000000 0.17788683 1.00000000
0.00000000 0.17690541 1.00000000
0.00000000 0.20594651 0.00000000
0.00000000 0.20365649 0.14795272
0.00000000 0.20293678 0.19999839
0.00000000 0.20254421 0.22838694
0.00000000 0.20208623 0.26150692
0.00000000 0.20169364 0.28989547
0.00000000 0.20130107 0.31828403
0.00000000 0.20103936 0.33720973
0.00000000 0.20071220 0.36086684
0.00000000 0.20038506 0.38452393
0.00000000 0.20005792 0.40818107
0.00000000 0.19959992 0.44130105
0.00000000 0.19927278 0.46495816
0.00000000 0.19901106 0.48388386
0.00000000 0.19868392 0.50754100
0.00000000 0.19835678 0.53119814
0.00000000 0.19776791 0.57378095
0.00000000 0.19717905 0.61636382
0.00000000 0.19639391 0.67314088
0.00000000 0.19521621 0.75830650
0.00000000 0.19416934 0.83400929
0.00000000 0.19351505 0.88132358
0.00000000 0.19318791 0.90498072
0.00000000 0.19272991 0.93810076
0.00000000 0.19227192 0.97122061
0.00000000 0.19187933 0.99960923
0.00000000 0.19155219 1.00000000
0.00000000 0.19109419 1.00000000
0.00000000 0.19076705 1.00000000
0.00000000 0.19057076 1.00000000
0.00000000 0.19043991 1.00000000
0.00000000 0.19024362 1.00000000
0.00000000 0.18926218 1.00000000
0.00000000 0.21830331 0.00000000
0.00000000 0.21601328 0.14689389
0.00000000 0.21529357 0.19893956
0.00000000 0.21490100 0.22732809
0.00000000 0.21444300 0.26044807
0.00000000 0.21405043 0.28883663
0.00000000 0.21365786 0.31722522
0.00000000 0.21339613 0.33615091
0.00000000 0.21306899 0.35980800
0.00000000 0.21274185 0.38346511
0.00000000 0.21241473 0.40712225
0.00000000 0.21195671 0.44024220
0.00000000 0.21162957 0.46389934
0.00000000 0.21136786 0.48282504
0.00000000 0.21104072 0.50648218
0.00000000 0.21071357 0.53013933
0.00000000 0.21012470 0.57272208
0.00000000 0.20953585 0.61530495
0.00000000 0.20875071 0.67208207
0.00000000 0.20757300 0.75724769
0.00000000 0.20652615 0.83295047
0.00000000 0.20587184 0.88026476
0.00000000 0.20554470 0.90392184
0.00000000 0.20508669 0.93704188
0.00000000 0.20462871 0.97016180
0.00000000 0.20423613 0.99855036
0.00000000 0.20390899 1.00000000
0.00000000 0.20345098 1.00000000
0.00000000 0.20312384 1.00000000
0.00000000 0.20292756 1.00000000
0.00000000 0.20279670 1.00000000
0.00000000 0.20260040 1.00000000
0.00000000 0.20161897 1.00000000
0.00000000 0.23066010 0.00000000
0.00000000 0.22837007 0.14583506
0.00000000 0.22765036 0.19788073
0.00000000 0.22725779 0.22626927
0.00000000 0.22679979 0.25938925
0.00000000 0.22640723 0.28777781
0.00000000 0.22601464 0.31616634
0.00000000 0.22575292 0.33509207
0.00000000 0.22542579 0.35874915
0.00000000 0.22509865 0.38240629
0.00000000 0.22477150 0.40606344
0.00000000 0.22431351 0.43918338
0.00000000 0.22398636 0.46284053
0.00000000 0.22372465 0.48176622
0.00000000 0.22339749 0.50542331
0.00000000 0.22307035 0.52908045
0.00000000 0.22248150 0.57166326
0.00000000 0.22189264 0.61424619
0.00000000 0.22110750 0.67102319
0.00000000 0.21992977 0.75618887
0.00000000 0.21888292 0.83189166
0.00000000 0.21822864 0.87920594
0.00000000 0.21790150 0.90286303
0.00000000 0.21744350 0.93598300
0.00000000 0.21698548 0.96910298
0.00000000 0.21659292 0.99749142
0.00000000 0.21626578 1.00000000
0.00000000 0.21580778 1.00000000
0.00000000 0.21548063 1.00000000
0.00000000 0.21528435 1.00000000
0.00000000 0.21515349 1.00000000
0.00000000 0.21495721 1.00000000
0.00000000 0.21397577 1.00000000
0.00000000 0.24301687 0.00000000
0.00000000 0.24072687 0.14477623
0.00000000 0.24000715 0.19682190
0.00000000 0.23961459 0.22521046
0.00000000 0.23915659 0.25833043
0.00000000 0.23876400 0.28671899
0.00000000 0.23837143 0.31510752
0.00000000 0.23810972 0.33403322
0.00000000 0.23778258 0.35769033
0.00000000 0.23745543 0.38134748
0.00000000 0.23712829 0.40500462
0.00000000 0.23667030 0.43812457
0.00000000 0.23634315 0.46178171
0.00000000 0.23608142 0.48070741
0.00000000 0.23575430 0.50436449
0.00000000 0.23542714 0.52802169
0.00000000 0.23483829 0.57060444
0.00000000 0.23424943 0.61318731
0.00000000 0.23346429 0.66996443
0.00000000 0.23228657 0.75513005
0.00000000 0.23123971 0.83083284
0.00000000 0.23058543 0.87814707
0.00000000 0.23025829 0.90180421
0.00000000 0.22980028 0.93492413
0.00000000 0.22934228 0.96804416
0.00000000 0.22894971 0.99643266
0.00000000 0.22862256 1.00000000
0.00000000 0.22816457 1.00000000
0.00000000 0.22783741 1.00000000
0.00000000 0.22764114 1.00000000
0.00000000 0.22751027 1.00000000
0.00000000 0.22731398 1.00000000
0.00000000 0.22633256 1.00000000
0.00000000 0.25949261 0.00000000
0.00000000 0.25720257 0.14336446
0.00000000 0.25648287 0.19541013
0.00000000 0.25609028 0.22379868
0.00000000 0.25563228 0.25691864
0.00000000 0.25523973 0.28530723
0.00000000 0.25484717 0.31369573
0.00000000 0.25458542 0.33262143
0.00000000 0.25425830 0.35627857
0.00000000 0.25393113 0.37993571
0.00000000 0.25360402 0.40359282
0.00000000 0.25314602 0.43671280
0.00000000 0.25281885 0.46036991
0.00000000 0.25255716 0.47929561
0.00000000 0.25223002 0.50295269
0.00000000 0.25190285 0.52660984
0.00000000 0.25131398 0.56919271
0.00000000 0.25072515 0.61177552
0.00000000 0.24994001 0.66855270
0.00000000 0.24876229 0.75371826
0.00000000 0.24771543 0.82942110
0.00000000 0.24706115 0.87673527
0.00000000 0.24673399 0.90039241
0.00000000 0.24627599 0.93351233
0.00000000 0.24581799 0.96663243
0.00000000 0.24542543 0.99502093
0.00000000 0.24509828 1.00000000
0.00000000 0.24464028 1.00000000
0.00000000 0.24431314 1.00000000
0.00000000 0.24411686 1.00000000
0.00000000 0.24398598 1.00000000
0.00000000 0.24378970 1.00000000
0.00000000 0.24280828 1.00000000
0.00000000 0.27596831 0.00000000
0.00000000 0.27367833 0.14195269
0.00000000 0.27295861 0.19399835
0.00000000 0.27256605 0.22238690
0.00000000 0.27210802 0.25550687
0.00000000 0.27171546 0.28389543
0.00000000 0.27132288 0.31228399
0.00000000 0.27106118 0.33120969
0.00000000 0.27073401 0.35486680
0.00000000 0.27040690 0.37852392
0.00000000 0.27007973 0.40218103
0.00000000 0.26962173 0.43530101
0.00000000 0.26929462 0.45895812
0.00000000 0.26903287 0.47788382
0.00000000 0.26870576 0.50154096
0.00000000 0.26837862 0.52519810
0.00000000 0.26778975 0.56778091
0.00000000 0.26720089 0.61036378
0.00000000 0.26641572 0.66714084
0.00000000 0.26523802 0.75230646
0.00000000 0.26419115 0.82800925
0.00000000 0.26353687 0.87532353
0.00000000 0.26320973 0.89898062
0.00000000 0.26275173 0.93210059
0.00000000 0.26229376 0.96522057
0.00000000 0.26190117 0.99360913
0.00000000 0.26157400 1.00000000
0.00000000 0.26111600 1.00000000
0.00000000 0.26078889 1.00000000
0.00000000 0.26059258 1.00000000
0.00000000 0.26046172 1.00000000
0.00000000 0.26026544 1.00000000
0.00000000 0.25928402 1.00000000
0.00000000 0.30068192 0.00000000
0.00000000 0.29839191 0.13983503
0.00000000 0.29767218 0.19188069
0.00000000 0.29727963 0.22026923
0.00000000 0.29682162 0.25338921
0.00000000 0.29642904 0.28177780
0.00000000 0.29603648 0.31016633
0.00000000 0.29577476 0.32909203
0.00000000 0.29544759 0.35274914
0.00000000 0.29512048 0.37640625
0.00000000 0.29479334 0.40006340
0.00000000 0.29433534 0.43318337
0.00000000 0.29400817 0.45684049
0.00000000 0.29374647 0.47576618
0.00000000 0.29341930 0.49942333
0.00000000 0.29309219 0.52308047
0.00000000 0.29250333 0.56566328
0.00000000 0.29191446 0.60824609
0.00000000 0.29112932 0.66502321
0.00000000 0.28995159 0.75018883
0.00000000 0.28890476 0.82589161
0.00000000 0.28825048 0.87320590
0.00000000 0.28792331 0.89686304
0.00000000 0.28746530 0.92998296
0.00000000 0.28700730 0.96310294
0.00000000 0.28661475 0.99149138
0.00000000 0.28628761 1.00000000
0.00000000 0.28582957 1.00000000
0.00000000 0.28550246 1.00000000
0.00000000 0.28530616 1.00000000
0.00000000 0.28517532 1.00000000
0.00000000 0.28497905 1.00000000
0.00000000 0.28399760 1.00000000
0.00000000 0.32539549 0.00000000
0.00000000 0.32310545 0.13771737
0.00000000 0.32238576 0.18976304
0.00000000 0.32199317 0.21815158
0.00000000 0.32153520 0.25127155
0.00000000 0.32114264 0.27966011
0.00000000 0.32075006 0.30804867
0.00000000 0.32048833 0.32697436
0.00000000 0.32016119 0.35063151
0.00000000 0.31983405 0.37428859
0.00000000 0.31950691 0.39794573
0.00000000 0.31904891 0.43106568
0.00000000 0.31872174 0.45472282
0.00000000 0.31846005 0.47364852
0.00000000 0.31813291 0.49730563
0.00000000 0.31780577 0.52096277
0.00000000 0.31721687 0.56354558
0.00000000 0.31662804 0.60612845
0.00000000 0.31584290 0.66290551
0.00000000 0.31466520 0.74807119
0.00000000 0.31361833 0.82377398
0.00000000 0.31296402 0.87108827
0.00000000 0.31263688 0.89474529
0.00000000 0.31217888 0.92786533
0.00000000 0.31172088 0.96098530
0.00000000 0.31132829 0.98937386
0.00000000 0.31100118 1.00000000
0.00000000 0.31054318 1.00000000
0.00000000 0.31021601 1.00000000
0.00000000 0.31001973 1.00000000
0.00000000 0.30988890 1.00000000
0.00000000 0.30969259 1.00000000
0.00000000 0.30871114 1.00000000
0.00000000 0.35010907 0.00000000
0.00000000 0.34781906 0.13559970
0.00000000 0.34709936 0.18764538
0.00000000 0.34670678 0.21603392
0.00000000 0.34624878 0.24915390
0.00000000 0.34585622 0.27754247
0.00000000 0.34546363 0.30593100
0.00000000 0.34520191 0.32485670
0.00000000 0.34487477 0.34851381
0.00000000 0.34454763 0.37217095
0.00000000 0.34422046 0.39582807
0.00000000 0.34376249 0.42894804
0.00000000 0.34343532 0.45260516
0.00000000 0.34317365 0.47153088
0.00000000 0.34284648 0.49518797
0.00000000 0.34251931 0.51884508
0.00000000 0.34193048 0.56142795
0.00000000 0.34134161 0.60401082
0.00000000 0.34055647 0.66078788
0.00000000 0.33937874 0.74595356
0.00000000 0.33833188 0.82165635
0.00000000 0.33767760 0.86897051
0.00000000 0.33735049 0.89262766
0.00000000 0.33689249 0.92574763
0.00000000 0.33643445 0.95886767
0.00000000 0.33604190 0.98725611
0.00000000 0.33571476 1.00000000
0.00000000 0.33525676 1.00000000
0.00000000 0.33492962 1.00000000
0.00000000 0.33473334 1.00000000
0.00000000 0.33460245 1.00000000
0.00000000 0.33440617 1.00000000
0.00000000 0.33342475 1.00000000
0.00000000 0.37482265 0.00000000
0.00000000 0.37253264 0.13348205
0.00000000 0.37181294 0.18552771
0.00000000 0.37142035 0.21391627
0.00000000 0.37096235 0.24703623
0.00000000 0.37056977 0.27542481
0.00000000 0.37017721 0.30381334
0.00000000 0.36991549 0.32273903
0.00000000 0.36958838 0.34639618
0.00000000 0.36926121 0.37005329
0.00000000 0.36893404 0.39371043
0.00000000 0.36847603 0.42683038
0.00000000 0.36814892 0.45048749
0.00000000 0.36788720 0.46941319
0.00000000 0.36756006 0.49307033
0.00000000 0.36723292 0.51672745
0.00000000 0.36664405 0.55931026
0.00000000 0.36605519 0.60189313
0.00000000 0.36527005 0.65867025
0.00000000 0.36409232 0.74383587
0.00000000 0.36304548 0.81953865
0.00000000 0.36239117 0.86685288
0.00000000 0.36206403 0.89051002
0.00000000 0.36160606 0.92363000
0.00000000 0.36114806 0.95674992
0.00000000 0.36075547 0.98513860
0.00000000 0.36042833 1.00000000
0.00000000 0.35997030 1.00000000
0.00000000 0.35964319 1.00000000
0.00000000 0.35944688 1.00000000
0.00000000 0.35931602 1.00000000
0.00000000 0.35911977 1.00000000
0.00000000 0.35813832 1.00000000
0.00000000 0.42424980 0.00000000
0.00000000 0.42195982 0.12924673
0.00000000 0.42124006 0.18129240
0.00000000 0.42084748 0.20968094
0.00000000 0.42038950 0.24280094
0.00000000 0.41999695 0.27118948
0.00000000 0.41960436 0.29957801
0.00000000 0.41934267 0.31850371
0.00000000 0.41901550 0.34216085
0.00000000 0.41868836 0.36581796
0.00000000 0.41836122 0.38947511
0.00000000 0.41790321 0.42259505
0.00000000 0.41757607 0.44625220
0.00000000 0.41731435 0.46517789
0.00000000 0.41698721 0.48883504
0.00000000 0.41666010 0.51249212
0.00000000 0.41607124 0.55507493
0.00000000 0.41548234 0.59765780
0.00000000 0.41469720 0.65443492
0.00000000 0.41351950 0.73960054
0.00000000 0.41247264 0.81530333
0.00000000 0.41181836 0.86261755
0.00000000 0.41149122 0.88627470
0.00000000 0.41103321 0.91939467
0.00000000 0.41057521 0.95251465
0.00000000 0.41018265 0.98090315
0.00000000 0.40985548 1.00000000
0.00000000 0.40939748 1.00000000
0.00000000 0.40907034 1.00000000
0.00000000 0.40887406 1.00000000
0.00000000 0.40874320 1.00000000
0.00000000 0.40854689 1.00000000
0.00000000 0.40756550 1.00000000
0.00000000 0.47779587 0.00000000
0.00000000 0.47550589 0.12465847
0.00000000 0.47478616 0.17670414
0.00000000 0.47439361 0.20509268
0.00000000 0.47393560 0.23821266
0.00000000 0.47354302 0.26660120
0.00000000 0.47315046 0.29498976
0.00000000 0.47288874 0.31391546
0.00000000 0.47256157 0.33757260
0.00000000 0.47223446 0.36122972
0.00000000 0.47190732 0.38488686
0.00000000 0.47144932 0.41800681
0.00000000 0.47112218 0.44166392
0.00000000 0.47086045 0.46058965
0.00000000 0.47053328 0.48424673
0.00000000 0.47020617 0.50790387
0.00000000 0.46961731 0.55048668
0.00000000 0.46902844 0.59306955
0.00000000 0.46824330 0.64984661
0.00000000 0.46706557 0.73501229
0.00000000 0.46601871 0.81071508
0.00000000 0.46536446 0.85802931
0.00000000 0.46503729 0.88168645
0.00000000 0.46457928 0.91480643
0.00000000 0.46412128 0.94792634
0.00000000 0.46372873 0.97631496
0.00000000 0.46340159 0.99997211
0.00000000 0.46294355 1.00000000
0.00000000 0.46261644 1.00000000
0.00000000 0.46242014 1.00000000
0.00000000 0.46228930 1.00000000
0.00000000 0.46209303 1.00000000
0.00000000 0.46111158 1.00000000
0.00000000 0.52310413 0.00000000
0.00000000 0.52081406 0.12077608
0.00000000 0.52009439 0.17282176
0.00000000 0.51970184 0.20121032
0.00000000 0.51924384 0.23433028
0.00000000 0.51885128 0.26271886
0.00000000 0.51845866 0.29110739
0.00000000 0.51819694 0.31003308
0.00000000 0.51786983 0.33369023
0.00000000 0.51754266 0.35734734
0.00000000 0.51721549 0.38100445
0.00000000 0.51675755 0.41412443
0.00000000 0.51643038 0.43778157
0.00000000 0.51616871 0.45670727
0.00000000 0.51584154 0.48036438
0.00000000 0.51551437 0.50402153
0.00000000 0.51492554 0.54660434
0.00000000 0.51433671 0.58918720
0.00000000 0.51355153 0.64596426
0.00000000 0.51237381 0.73112988
0.00000000 0.51132697 0.80683267
0.00000000 0.51067263 0.85414696
0.00000000 0.51034552 0.87780404
0.00000000 0.50988752 0.91092402
0.00000000 0.50942951 0.94404399
0.00000000 0.50903690 0.97243255
0.00000000 0.50870985 0.99608970
0.00000000 0.50825185 1.00000000
0.00000000 0.50792468 1.00000000
0.00000000 0.50772834 1.00000000
0.00000000 0.50759751 1.00000000
