luts/generated/Car_Blue_5.cube
TITLE "Car_Blue"
LUT_3D_SIZE 9
DOMAIN_MIN 0.0 0.0 0.0
DOMAIN_MAX 1.0 1.0 1.0
0.00000000 0.00000000 0.00000000
0.00000000 0.00000000 0.27915406
0.00000000 0.00000000 0.37851399
0.00000000 0.00000000 0.48260531
0.00000000 0.00000000 0.59142804
0.00000000 0.00000000 0.85165644
0.00000000 0.00000000 0.98886776
0.00000000 0.00000000 1.00000000
0.00000000 0.00000000 1.00000000
0.00000000 0.12356791 0.00000000
0.00000000 0.11970761 0.26856574
0.00000000 0.11833360 0.36792570
0.00000000 0.11689418 0.47201705
0.00000000 0.11538931 0.58083987
0.00000000 0.11179074 0.84106809
0.00000000 0.10989331 0.97827947
0.00000000 0.10838845 1.00000000
0.00000000 0.10688359 1.00000000
0.00000000 0.19358970 0.00000000
0.00000000 0.18972942 0.26256573
0.00000000 0.18835542 0.36192569
0.00000000 0.18691599 0.46601701
0.00000000 0.18541114 0.57483971
0.00000000 0.18181255 0.83506805
0.00000000 0.17991512 0.97227943
0.00000000 0.17841026 1.00000000
0.00000000 0.17690541 1.00000000
0.00000000 0.24301687 0.00000000
0.00000000 0.23915659 0.25833043
0.00000000 0.23778258 0.35769033
0.00000000 0.23634315 0.46178171
0.00000000 0.23483829 0.57060444
0.00000000 0.23123971 0.83083284
0.00000000 0.22934228 0.96804416
0.00000000 0.22783741 1.00000000
0.00000000 0.22633256 1.00000000
0.00000000 0.32539549 0.00000000
0.00000000 0.32153520 0.25127155
0.00000000 0.32016119 0.35063151
0.00000000 0.31872174 0.45472282
0.00000000 0.31721687 0.56354558
0.00000000 0.31361833 0.82377398
0.00000000 0.31172088 0.96098530
0.00000000 0.31021601 1.00000000
0.00000000 0.30871114 1.00000000
0.00000000 0.47779587 0.00000000
0.00000000 0.47393560 0.23821266
0.00000000 0.47256157 0.33757260
0.00000000 0.47112218 0.44166392
0.00000000 0.46961731 0.55048668
0.00000000 0.46601871 0.81071508
0.00000000 0.46412128 0.94792634
0.00000000 0.46261644 1.00000000
0.00000000 0.46111158 1.00000000
0.00000000 0.65490991 0.00000000
0.00000000 0.65104961 0.22303611
0.00000000 0.64967561 0.32239604
0.00000000 0.64823616 0.42648739
0.00000000 0.64673132 0.53531015
0.00000000 0.64313275 0.79553849
0.00000000 0.64139396 0.93183005
0.00000000 0.64009082 1.00000000
0.00000000 0.63878769 1.00000000
0.00000000 0.74576330 0.00000000
0.00000000 0.74242043 0.21089882
0.00000000 0.74123061 0.30919138
0.00000000 0.73998404 0.41216448
0.00000000 0.73868090 0.51981819
0.00000000 0.73556465 0.77725101
0.00000000 0.73392147 0.91298825
0.00000000 0.73261833 1.00000000
0.00000000 0.73131514 1.00000000
0.00000000 1.00000000 0.00000000
0.00000000 1.00000000 0.14752229
0.00000000 1.00000000 0.24581482
0.00000000 1.00000000 0.34878793
0.00000000 1.00000000 0.45644164
0.00000000 1.00000000 0.71387446
0.00000000 1.00000000 0.84961176
0.00000000 1.00000000 0.95726550
0.00000000 1.00000000 1.00000000
0.07240609 0.00000000 0.00000000
0.06756375 0.00000000 0.27747539
0.06584020 0.00000000 0.37683535
0.06403457 0.00000000 0.48092669
0.06214688 0.00000000 0.58974946
0.05763283 0.00000000 0.84997785
0.05525269 0.00000000 0.98718917
0.05336500 0.00000000 1.00000000
0.05147731 0.00000000 1.00000000
0.04801589 0.12048532 0.00000000
0.04317354 0.11662503 0.26688713
0.04144999 0.11525102 0.36624706
0.03964437 0.11381160 0.47033834
0.03775668 0.11230674 0.57916117
0.03324262 0.10870815 0.83938956
0.03086248 0.10681073 0.97660083
0.02897479 0.10530587 1.00000000
0.02708710 0.10380101 1.00000000
0.03419477 0.19050713 0.00000000
0.02935242 0.18664685 0.26088709
0.02762887 0.18527284 0.36024699
0.02582325 0.18383341 0.46433836
0.02393555 0.18232855 0.57316113
0.01942149 0.17872997 0.83338952
0.01704137 0.17683254 0.97060084
0.01515366 0.17532767 1.00000000
0.01326596 0.17382282 1.00000000
0.02443868 0.23993428 0.00000000
0.01959634 0.23607400 0.25665176
0.01787279 0.23469999 0.35601172
0.01606717 0.23326056 0.46010303
0.01417946 0.23175572 0.56892574
0.00966540 0.22815713 0.82915419
0.00728527 0.22625969 0.96636546
0.00539757 0.22475483 1.00000000
0.00350988 0.22324997 1.00000000
0.00817853 0.32231289 0.00000000
0.00333618 0.31845260 0.24959290
0.00161264 0.31707859 0.34895283
0.00000000 0.31563920 0.45304418
0.00000000 0.31413433 0.56186694
0.00000000 0.31053573 0.82209533
0.00000000 0.30863830 0.95930666
0.00000000 0.30713347 1.00000000
0.00000000 0.30562860 1.00000000
0.00000000 0.47471333 0.00000000
0.00000000 0.47085300 0.23653401
0.00000000 0.46947902 0.33589393
0.00000000 0.46803957 0.43998528
0.00000000 0.46653470 0.54880804
0.00000000 0.46293616 0.80903643
0.00000000 0.46103871 0.94624776
0.00000000 0.45953384 1.00000000
0.00000000 0.45802897 1.00000000
0.00000000 0.65182728 0.00000000
0.00000000 0.64796704 0.22135745
0.00000000 0.64659297 0.32071739
0.00000000 0.64515358 0.42480871
0.00000000 0.64364874 0.53363150
0.00000000 0.64036775 0.79201937
0.00000000 0.63872457 0.92775661
0.00000000 0.63742143 1.00000000
0.00000000 0.63611823 1.00000000
0.00000000 0.74309391 0.00000000
0.00000000 0.73975098 0.20682546
0.00000000 0.73856121 0.30511802
0.00000000 0.73731464 0.40809113
0.00000000 0.73601145 0.51574486
0.00000000 0.73289520 0.77317762
0.00000000 0.73125207 0.90891498
0.00000000 0.72994888 1.00000000
0.00000000 0.72864574 1.00000000
0.00000000 1.00000000 0.00000000
0.00000000 1.00000000 0.14344889
0.00000000 1.00000000 0.24174148
0.00000000 1.00000000 0.34471458
0.00000000 1.00000000 0.45236829
0.00000000 1.00000000 0.70980114
0.00000000 1.00000000 0.84553838
0.00000000 1.00000000 0.95319206
0.00000000 1.00000000 1.00000000
0.13576142 0.00000000 0.00000000
0.13091907 0.00000000 0.27600661
0.12919553 0.00000000 0.37536654
0.12738989 0.00000000 0.47945786
0.12550220 0.00000000 0.58828068
0.12098816 0.00000000 0.84850901
0.11860801 0.00000000 0.98572034
0.11672033 0.00000000 1.00000000
0.11483262 0.00000000 1.00000000
0.11137121 0.11778807 0.00000000
0.10652886 0.11392777 0.26541829
0.10480531 0.11255377 0.36477822
0.10299969 0.11111434 0.46886957
0.10111199 0.10960948 0.57769233
0.09659795 0.10601090 0.83792073
0.09421781 0.10411347 0.97513205
0.09233011 0.10260861 1.00000000
0.09044242 0.10110375 1.00000000
0.09755009 0.18780988 0.00000000
0.09270774 0.18394959 0.25941828
0.09098420 0.18257558 0.35877821
0.08917858 0.18113615 0.46286952
0.08729088 0.17963131 0.57169229
0.08277682 0.17603272 0.83192068
0.08039668 0.17413528 0.96913195
0.07850899 0.17263041 1.00000000
0.07662131 0.17112556 1.00000000
0.08779401 0.23723704 0.00000000
0.08295166 0.23337674 0.25518295
0.08122811 0.23200275 0.35454288
0.07942249 0.23056331 0.45863423
0.07753480 0.22905846 0.56745696
0.07302075 0.22545987 0.82768536
0.07064062 0.22356245 0.96489668
0.06875291 0.22205758 1.00000000
0.06686521 0.22055273 1.00000000
0.07153388 0.31961563 0.00000000
0.06669150 0.31575534 0.24812409
0.06496797 0.31438133 0.34748402
0.06316235 0.31294194 0.45157537
0.06127465 0.31143707 0.56039810
0.05676060 0.30783847 0.82062650
0.05438045 0.30594108 0.95783782
0.05249275 0.30443621 1.00000000
0.05060507 0.30293134 1.00000000
0.04145261 0.47201607 0.00000000
0.03661025 0.46815574 0.23506519
0.03488671 0.46678177 0.33442512
0.03308108 0.46534231 0.43851647
0.03119338 0.46383744 0.54733920
0.02667934 0.46023887 0.80756760
0.02429920 0.45834145 0.94477892
0.02241150 0.45683658 1.00000000
0.02052380 0.45533174 1.00000000
0.00649330 0.64913005 0.00000000
0.00165094 0.64526981 0.21988863
0.00000000 0.64389575 0.31924859
0.00000000 0.64245635 0.42333990
0.00000000 0.64114821 0.53102231
0.00000000 0.63803196 0.78845513
0.00000000 0.63638878 0.92419243
0.00000000 0.63508564 1.00000000
0.00000000 0.63378245 1.00000000
0.00000000 0.74075812 0.00000000
0.00000000 0.73741519 0.20326124
0.00000000 0.73622537 0.30155382
0.00000000 0.73497891 0.40452692
0.00000000 0.73367566 0.51218063
0.00000000 0.73055941 0.76961344
0.00000000 0.72891635 0.90535074
0.00000000 0.72761309 1.00000000
0.00000000 0.72630996 1.00000000
0.00000000 1.00000000 0.00000000
0.00000000 1.00000000 0.13988468
0.00000000 1.00000000 0.23817728
0.00000000 1.00000000 0.34115037
0.00000000 1.00000000 0.44880408
0.00000000 1.00000000 0.70623690
0.00000000 1.00000000 0.84197420
0.00000000 1.00000000 0.94962788
0.00000000 1.00000000 1.00000000
0.16743909 0.00000000 0.00000000
0.16259675 0.00000000 0.27527216
0.16087320 0.00000000 0.37463212
0.15906757 0.00000000 0.47872347
0.15717988 0.00000000 0.58754629
0.15266584 0.00000000 0.84777457
0.15028569 0.00000000 0.98498589
0.14839798 0.00000000 1.00000000
0.14651029 0.00000000 1.00000000
0.14304887 0.11643943 0.00000000
0.13820653 0.11257914 0.26468387
0.13648298 0.11120514 0.36404380
0.13467737 0.10976570 0.46813518
0.13278966 0.10826086 0.57695794
0.12827560 0.10466228 0.83718634
0.12589547 0.10276484 0.97439766
0.12400778 0.10125998 1.00000000
0.12212010 0.09975512 1.00000000
0.12922776 0.18646125 0.00000000
0.12438541 0.18260096 0.25868386
0.12266186 0.18122694 0.35804379
0.12085624 0.17978752 0.46213514
0.11896854 0.17828265 0.57095790
0.11445450 0.17468409 0.83118629
0.11207435 0.17278665 0.96839762
0.11018666 0.17128178 1.00000000
0.10829896 0.16977693 1.00000000
0.11947168 0.23588841 0.00000000
0.11462933 0.23202813 0.25444853
0.11290579 0.23065412 0.35380846
0.11110016 0.22921468 0.45789981
0.10921246 0.22770983 0.56672257
0.10469841 0.22411124 0.82695097
0.10231827 0.22221382 0.96416235
0.10043058 0.22070895 1.00000000
0.09854289 0.21920410 1.00000000
0.10321154 0.31826702 0.00000000
0.09836920 0.31440672 0.24738967
0.09664564 0.31303272 0.34674960
0.09484002 0.31159329 0.45084095
0.09295233 0.31008843 0.55966371
0.08843827 0.30648986 0.81989211
0.08605814 0.30459243 0.95710343
0.08417045 0.30308756 1.00000000
0.08228274 0.30158269 1.00000000
0.07313028 0.47066742 0.00000000
0.06828792 0.46680713 0.23433077
0.06656438 0.46543312 0.33369070
0.06475875 0.46399373 0.43778205
0.06287108 0.46248883 0.54660481
0.05835699 0.45889026 0.80683315
0.05597690 0.45699281 0.94404453
0.05408917 0.45548797 1.00000000
0.05220147 0.45398313 1.00000000
0.03817097 0.64778143 0.00000000
0.03332861 0.64392114 0.21915421
0.03160510 0.64254713 0.31851417
0.03064261 0.64128351 0.42158651
0.02972227 0.63998038 0.52924025
0.02752149 0.63686407 0.78667307
0.02636106 0.63522094 0.92241031
0.02544072 0.63391781 1.00000000
0.02452039 0.63261461 1.00000000
0.02600382 0.73959029 0.00000000
0.02364295 0.73624736 0.20147918
0.02280262 0.73505753 0.29977176
0.02192233 0.73381102 0.40274483
0.02100202 0.73250782 0.51039857
0.01880118 0.72939157 0.76783133
0.01764078 0.72774845 0.90356869
0.01672047 0.72644526 1.00000000
0.01580011 0.72514212 1.00000000
0.00000000 1.00000000 0.00000000
0.00000000 1.00000000 0.13810259
0.00000000 1.00000000 0.23639518
0.00000000 1.00000000 0.33936825
0.00000000 1.00000000 0.44702199
0.00000000 1.00000000 0.70445478
0.00000000 1.00000000 0.84019208
0.00000000 1.00000000 0.94784576
0.00000000 1.00000000 1.00000000
0.25794667 0.00000000 0.00000000
0.25310433 0.00000000 0.27317387
0.25138080 0.00000000 0.37253383
0.24957518 0.00000000 0.47662514
0.24768749 0.00000000 0.58544791
0.24317342 0.00000000 0.84567630
0.24079329 0.00000000 0.98288763
0.23890561 0.00000000 1.00000000
0.23701790 0.00000000 1.00000000
0.23355649 0.11258622 0.00000000
0.22871414 0.10872592 0.26258558
0.22699060 0.10735192 0.36194551
0.22518496 0.10591248 0.46603686
0.22329727 0.10440763 0.57485956
0.21878323 0.10080905 0.83508801
0.21640308 0.09891162 0.97229928
0.21451540 0.09740676 1.00000000
0.21262769 0.09590190 1.00000000
0.21973537 0.18260802 0.00000000
0.21489303 0.17874773 0.25658554
0.21316947 0.17737374 0.35594547
0.21136385 0.17593430 0.46003681
0.20947616 0.17442945 0.56885958
0.20496210 0.17083086 0.82908797
0.20258197 0.16893344 0.96629936
0.20069428 0.16742858 1.00000000
0.19880658 0.16592371 1.00000000
0.20997930 0.23203519 0.00000000
0.20513694 0.22817490 0.25235024
0.20341340 0.22680089 0.35171017
0.20160778 0.22536147 0.45580149
0.19972007 0.22385660 0.56462425
0.19520602 0.22025801 0.82485259
0.19282588 0.21836057 0.96206391
0.19093819 0.21685573 1.00000000
0.18905050 0.21535087 1.00000000
0.19371915 0.31441379 0.00000000
0.18887679 0.31055349 0.24529137
0.18715325 0.30917951 0.34465128
0.18534763 0.30774009 0.44874263
0.18345992 0.30623522 0.55756539
0.17894588 0.30263662 0.81779373
0.17656574 0.30073920 0.95500511
0.17467806 0.29923436 1.00000000
0.17279036 0.29772949 1.00000000
0.16363788 0.46681422 0.00000000
0.15879554 0.46295390 0.23223247
0.15707199 0.46157992 0.33159241
0.15526637 0.46014047 0.43568373
0.15337867 0.45863560 0.54450649
0.14886461 0.45503706 0.80473489
0.14648449 0.45313960 0.94194621
0.14459679 0.45163473 1.00000000
0.14270909 0.45012987 1.00000000
0.12867856 0.64392817 0.00000000
0.12534779 0.64038312 0.21522915
0.12450747 0.63919324 0.31352171
0.12362717 0.63794672 0.41649482
0.12270684 0.63664359 0.52414852
0.12050603 0.63352728 0.78158134
0.11934562 0.63188416 0.91731864
0.11842529 0.63058102 1.00000000
0.11750495 0.62927783 1.00000000
0.11898835 0.73625350 0.00000000
0.11662751 0.73291057 0.19638747
0.11578719 0.73172075 0.29468003
0.11490689 0.73047423 0.39765313
0.11398656 0.72917104 0.50530684
0.11178575 0.72605479 0.76273966
0.11062534 0.72441167 0.89847696
0.10970501 0.72310847 1.00000000
0.10878468 0.72180533 1.00000000
0.08965652 1.00000000 0.00000000
0.08729565 1.00000000 0.13301091
0.08645535 1.00000000 0.23130350
0.08557505 1.00000000 0.33427659
0.08465469 1.00000000 0.44193026
0.08245391 1.00000000 0.69936311
0.08129350 1.00000000 0.83510041
0.08037314 1.00000000 0.94275409
0.07945283 1.00000000 1.00000000
0.37108123 0.00000000 0.00000000
0.36623889 0.00000000 0.27055097
0.36451533 0.00000000 0.36991090
0.36270970 0.00000000 0.47400224
0.36082202 0.00000000 0.58282506
0.35630795 0.00000000 0.84305340
0.35392782 0.00000000 0.98026472
0.35204011 0.00000000 1.00000000
0.35015243 0.00000000 1.00000000
0.34669101 0.10776968 0.00000000
0.34184864 0.10390939 0.25996268
0.34012511 0.10253538 0.35932261
0.33831951 0.10109595 0.46341395
0.33643177 0.09959109 0.57223672
0.33191773 0.09599251 0.83246517
0.32953763 0.09409509 0.96967643
0.32764989 0.09259023 1.00000000
0.32576224 0.09108537 1.00000000
0.33286989 0.17779151 0.00000000
0.32802755 0.17393120 0.25396267
0.32630399 0.17255720 0.35332257
0.32449839 0.17111777 0.45741391
0.32261068 0.16961291 0.56623667
0.31809661 0.16601433 0.82646507
0.31571651 0.16411689 0.96367639
0.31382880 0.16261205 1.00000000
0.31194109 0.16110718 1.00000000
0.32311383 0.22721866 0.00000000
0.31827146 0.22335836 0.24972734
0.31654793 0.22198436 0.34908727
0.31474230 0.22054493 0.45317861
0.31285459 0.21904007 0.56200141
0.30834055 0.21544150 0.82222974
0.30596042 0.21354406 0.95944107
0.30407271 0.21203920 1.00000000
0.30218503 0.21053433 1.00000000
0.30685368 0.30959725 0.00000000
0.30201131 0.30573699 0.24266846
0.30028778 0.30436295 0.34202838
0.29848215 0.30292353 0.44611973
0.29659444 0.30141869 0.55494249
0.29208040 0.29782009 0.81517088
0.28970027 0.29592267 0.95238215
0.28781256 0.29441783 1.00000000
0.28592488 0.29291296 1.00000000
0.27677241 0.46199766 0.00000000
0.27193007 0.45813736 0.22960956
0.27020651 0.45676336 0.32896951
0.26840091 0.45532396 0.43306082
0.26651323 0.45381910 0.54188359
0.26199916 0.45022050 0.80211204
0.25961900 0.44832307 0.93932331
0.25773135 0.44681823 1.00000000
0.25584361 0.44531336 1.00000000
0.24393937 0.63955504 0.00000000
0.24157850 0.63621211 0.20886454
0.24073821 0.63502228 0.30715710
0.23985788 0.63377571 0.41013017
0.23893754 0.63247257 0.51778388
0.23673676 0.62935627 0.77521670
0.23557633 0.62771314 0.91095406
0.23465599 0.62641001 1.00000000
0.23373570 0.62510681 1.00000000
0.23521909 0.73208249 0.00000000
0.23285823 0.72873962 0.19002286
0.23201793 0.72754973 0.28831539
0.23113760 0.72630322 0.39128849
0.23021726 0.72500008 0.49894223
0.22801648 0.72188377 0.75637501
0.22685605 0.72024065 0.89211231
0.22593571 0.71893752 0.99976599
0.22501537 0.71763432 1.00000000
0.20588723 1.00000000 0.00000000
0.20352642 1.00000000 0.12664627
0.20268612 1.00000000 0.22493885
0.20180576 1.00000000 0.32791194
0.20088546 1.00000000 0.43556565
0.19868462 1.00000000 0.69299847
0.19752426 1.00000000 0.82873577
0.19660391 1.00000000 0.93638951
0.19568360 1.00000000 1.00000000
0.54304570 0.00000000 0.00000000
0.53820336 0.00000000 0.26656419
0.53647983 0.00000000 0.36592412
0.53467417 0.00000000 0.47001544
0.53278649 0.00000000 0.57883817
0.52827239 0.00000000 0.83906657
0.52589226 0.00000000 0.97627789
0.52400452 0.00000000 1.00000000
0.52211690 0.00000000 1.00000000
0.51865548 0.10044855 0.00000000
0.51381314 0.09658826 0.25597587
0.51208955 0.09521426 0.35533580
0.51028395 0.09377483 0.45942718
0.50839627 0.09226996 0.56824994
0.50388217 0.08867139 0.82847834
0.50150210 0.08677397 0.96568966
0.49961439 0.08526909 1.00000000
0.49772668 0.08376423 1.00000000
0.50483429 0.17047037 0.00000000
0.49999201 0.16661008 0.24997586
0.49826843 0.16523607 0.34933579
0.49646288 0.16379663 0.45342714
0.49457514 0.16229178 0.56224990
0.49006110 0.15869321 0.82247823
0.48768094 0.15679577 0.95968956
0.48579326 0.15529092 1.00000000
0.48390552 0.15378606 1.00000000
0.49507827 0.21989752 0.00000000
0.49023589 0.21603724 0.24574053
0.48851237 0.21466324 0.34510046
0.48670676 0.21322380 0.44919181
0.48481902 0.21171895 0.55801457
0.48030499 0.20812036 0.81824297
0.47792488 0.20622294 0.95545423
0.47603714 0.20471807 1.00000000
0.47414950 0.20321321 1.00000000
0.47881812 0.30227616 0.00000000
0.47397575 0.29841584 0.23868166
0.47225222 0.29704183 0.33804160
0.47044662 0.29560241 0.44213292
0.46855891 0.29409754 0.55095571
0.46404484 0.29049897 0.81118411
0.46166474 0.28860155 0.94839543
0.45977703 0.28709668 1.00000000
0.45788935 0.28559181 1.00000000
0.44873688 0.45467654 0.00000000
0.44389454 0.45081627 0.22562277
0.44217098 0.44944224 0.32498273
0.44036537 0.44800285 0.42907405
0.43847767 0.44649798 0.53789681
0.43396360 0.44289938 0.79812515
0.43158346 0.44100195 0.93533647
0.42969579 0.43949711 1.00000000
0.42780808 0.43799224 1.00000000
0.42061004 0.63321513 0.00000000
0.41824919 0.62987220 0.19919032
0.41740888 0.62868237 0.29748288
0.41652855 0.62743580 0.40045595
0.41560823 0.62613267 0.50810969
0.41340744 0.62301642 0.76554251
0.41224700 0.62137324 0.90127981
0.41132668 0.62007010 1.00000000
0.41040635 0.61876690 1.00000000
0.41188976 0.72574258 0.00000000
0.40952888 0.72239965 0.18034863
0.40868860 0.72120988 0.27864119
0.40780827 0.71996331 0.38161430
0.40688795 0.71866018 0.48926800
0.40468717 0.71554387 0.74670076
0.40352672 0.71390074 0.88243806
0.40260637 0.71259761 0.99009186
0.40168604 0.71129441 1.00000000
0.38255793 1.00000000 0.00000000
0.38019705 1.00000000 0.11697204
0.37935677 1.00000000 0.21526457
0.37847644 1.00000000 0.31823772
0.37755609 1.00000000 0.42589143
0.37535530 1.00000000 0.68332428
0.37419489 1.00000000 0.81906152
0.37327453 1.00000000 0.92671525
0.37235424 1.00000000 1.00000000
0.65618020 0.00000000 0.00000000
0.65133786 0.00000000 0.26394129
0.64961427 0.00000000 0.36330125
0.64780873 0.00000000 0.46739253
0.64592099 0.00000000 0.57621533
0.64140695 0.00000000 0.83644366
0.63902682 0.00000000 0.97365499
0.63713914 0.00000000 1.00000000
0.63525140 0.00000000 1.00000000
0.63178998 0.09563202 0.00000000
0.62694764 0.09177173 0.25335300
0.62522411 0.09039773 0.35271293
0.62341845 0.08895831 0.45680428
0.62153083 0.08745344 0.56562704
0.61701673 0.08385485 0.82585543
0.61463660 0.08195742 0.96306670
0.61274892 0.08045256 1.00000000
0.61086124 0.07894769 1.00000000
0.61796892 0.16565382 0.00000000
0.61312652 0.16179356 0.24735294
0.61140299 0.16041954 0.34671289
0.60959733 0.15898012 0.45080420
0.60770965 0.15747526 0.55962694
0.60319561 0.15387668 0.81985539
0.60081547 0.15197924 0.95706666
0.59892780 0.15047438 1.00000000
0.59704012 0.14896953 1.00000000
0.60821283 0.21508099 0.00000000
0.60337043 0.21122071 0.24311765
0.60164696 0.20984671 0.34247759
0.59984130 0.20840727 0.44656894
0.59795356 0.20690241 0.55539167
0.59343952 0.20330383 0.81562006
0.59105939 0.20140640 0.95283139
0.58917165 0.19990154 1.00000000
0.58728403 0.19839668 1.00000000
0.59195262 0.29745960 0.00000000
0.58711034 0.29359931 0.23605877
0.58538675 0.29222530 0.33541870
0.58358115 0.29078588 0.43951005
0.58169347 0.28928104 0.54833281
0.57717943 0.28568244 0.80856121
0.57479924 0.28378502 0.94577253
0.57291156 0.28228018 1.00000000
0.57102388 0.28077528 1.00000000
0.56187141 0.44986004 0.00000000
0.55702907 0.44599971 0.22299990
0.55530554 0.44462574 0.32235983
0.55349994 0.44318628 0.42645115
0.55161220 0.44168141 0.53527391
0.54709816 0.43808287 0.79550231
0.54552191 0.43635303 0.93174207
0.54460156 0.43504986 1.00000000
0.54368126 0.43374670 1.00000000
0.53684074 0.62904412 0.00000000
0.53447986 0.62570119 0.19282568
0.53363961 0.62451136 0.29111823
0.53275931 0.62326479 0.39409134
0.53183889 0.62196165 0.50174505
0.52963811 0.61884540 0.75917792
0.52847773 0.61720228 0.89491522
0.52755737 0.61589909 1.00000000
0.52663708 0.61459595 1.00000000
0.52812046 0.72157162 0.00000000
0.52575958 0.71822870 0.17398402
0.52491933 0.71703887 0.27227655
0.52403903 0.71579230 0.37524965
0.52311862 0.71448916 0.48290339
0.52091783 0.71137291 0.74033618
0.51975745 0.70972979 0.87607348
0.51883715 0.70842659 0.98372722
0.51791680 0.70712340 1.00000000
0.49878863 1.00000000 0.00000000
0.49642777 1.00000000 0.11060746
0.49558753 1.00000000 0.20889993
0.49470717 1.00000000 0.31187314
0.49378681 1.00000000 0.41952682
0.49158603 1.00000000 0.67695963
0.49042562 1.00000000 0.81269693
0.48950529 1.00000000 0.92035067
0.48858494 1.00000000 1.00000000
1.00000000 0.00000000 0.00000000
1.00000000 0.00000000 0.25240055
1.00000000 0.00000000 0.35176048
1.00000000 0.00000000 0.45585182
1.00000000 0.00000000 0.56467462
1.00000000 0.00000000 0.82490295
1.00000000 0.00000000 0.96211421
1.00000000 0.00000000 1.00000000
1.00000000 0.00000000 1.00000000
1.00000000 0.07443929 0.00000000
1.00000000 0.07057898 0.24181226
1.00000000 0.06920499 0.34117222
1.00000000 0.06776556 0.44526353
1.00000000 0.06626070 0.55408627
1.00000000 0.06266211 0.81431466
1.00000000 0.06076470 0.95152599
1.00000000 0.05925984 1.00000000
1.00000000 0.05775497 1.00000000
1.00000000 0.14446110 0.00000000
1.00000000 0.14060082 0.23581223
1.00000000 0.13922681 0.33517215
1.00000000 0.13778737 0.43926349
1.00000000 0.13628252 0.54808623
1.00000000 0.13268393 0.80831468
1.00000000 0.13078649 0.94552594
1.00000000 0.12928167 1.00000000
1.00000000 0.12777680 1.00000000
1.00000000 0.19388828 0.00000000
1.00000000 0.19002798 0.23157692
1.00000000 0.18865398 0.33093685
1.00000000 0.18721455 0.43502820
1.00000000 0.18570969 0.54385096
1.00000000 0.18211110 0.80407935
1.00000000 0.18021366 0.94129068
1.00000000 0.17870881 1.00000000
1.00000000 0.17720397 1.00000000
1.00000000 0.27626687 0.00000000
1.00000000 0.27240658 0.22451803
1.00000000 0.27103260 0.32387796
1.00000000 0.26959315 0.42796934
1.00000000 0.26808828 0.53679210
1.00000000 0.26448971 0.79702049
1.00000000 0.26259229 0.93423182
1.00000000 0.26108745 1.00000000
1.00000000 0.25977990 1.00000000
1.00000000 0.42984250 0.00000000
1.00000000 0.42649963 0.20164828
1.00000000 0.42530975 0.29994082
1.00000000 0.42406327 0.40291393
1.00000000 0.42276010 0.51056767
1.00000000 0.41964379 0.76800048
1.00000000 0.41800070 0.90373772
1.00000000 0.41669753 1.00000000
1.00000000 0.41539437 1.00000000
1.00000000 0.61069179 0.00000000
1.00000000 0.60734886 0.16482137
1.00000000 0.60615903 0.26311392
1.00000000 0.60491246 0.36608702
1.00000000 0.60360932 0.47374073
1.00000000 0.60049307 0.73117357
1.00000000 0.59884989 0.86691087
1.00000000 0.59754676 0.97456455
1.00000000 0.59624362 1.00000000
1.00000000 0.70321929 0.00000000
1.00000000 0.69987637 0.14597967
1.00000000 0.69868654 0.24427222
1.00000000 0.69743997 0.34724534
1.00000000 0.69613683 0.45489901
1.00000000 0.69302058 0.71233189
1.00000000 0.69137740 0.84806913
1.00000000 0.69007427 0.95572287
1.00000000 0.68877107 1.00000000
1.00000000 1.00000000 0.00000000
1.00000000 1.00000000 0.08260312
1.00000000 1.00000000 0.18089572
1.00000000 1.00000000 0.28386879
1.00000000 1.00000000 0.39152250
1.00000000 1.00000000 0.64895523
1.00000000 1.00000000 0.78469259
1.00000000 1.00000000 0.89234632
1.00000000 1.00000000 1.00000000
