luts/generated/Car_Blue_5.cube
TITLE "Car_Blue"
LUT_3D_SIZE 5
DOMAIN_MIN 0.0 0.0 0.0
DOMAIN_MAX 1.0 1.0 1.0
0.00000000 0.00000000 0.00000000
0.00000000 0.00000000 0.37851399
0.00000000 0.00000000 0.59142804
0.00000000 0.00000000 0.98886776
0.00000000 0.00000000 1.00000000
0.00000000 0.19358970 0.00000000
0.00000000 0.18835542 0.36192569
0.00000000 0.18541114 0.57483971
0.00000000 0.17991512 0.97227943
0.00000000 0.17690541 1.00000000
0.00000000 0.32539549 0.00000000
0.00000000 0.32016119 0.35063151
0.00000000 0.31721687 0.56354558
0.00000000 0.31172088 0.96098530
0.00000000 0.30871114 1.00000000
0.00000000 0.65490991 0.00000000
0.00000000 0.64967561 0.32239604
0.00000000 0.64673132 0.53531015
0.00000000 0.64139396 0.93183005
0.00000000 0.63878769 1.00000000
0.00000000 1.00000000 0.00000000
0.00000000 1.00000000 0.24581482
0.00000000 1.00000000 0.45644164
0.00000000 1.00000000 0.84961176
0.00000000 1.00000000 1.00000000
0.13576142 0.00000000 0.00000000
0.12919553 0.00000000 0.37536654
0.12550220 0.00000000 0.58828068
0.11860801 0.00000000 0.98572034
0.11483262 0.00000000 1.00000000
0.09755009 0.18780988 0.00000000
0.09098420 0.18257558 0.35877821
0.08729088 0.17963131 0.57169229
0.08039668 0.17413528 0.96913195
0.07662131 0.17112556 1.00000000
0.07153388 0.31961563 0.00000000
0.06496797 0.31438133 0.34748402
0.06127465 0.31143707 0.56039810
0.05438045 0.30594108 0.95783782
0.05060507 0.30293134 1.00000000
0.00649330 0.64913005 0.00000000
0.00000000 0.64389575 0.31924859
0.00000000 0.64114821 0.53102231
0.00000000 0.63638878 0.92419243
0.00000000 0.63378245 1.00000000
0.00000000 1.00000000 0.00000000
0.00000000 1.00000000 0.23817728
0.00000000 1.00000000 0.44880408
0.00000000 1.00000000 0.84197420
0.00000000 1.00000000 1.00000000
0.25794667 0.00000000 0.00000000
0.25138080 0.00000000 0.37253383
0.24768749 0.00000000 0.58544791
0.24079329 0.00000000 0.98288763
0.23701790 0.00000000 1.00000000
0.21973537 0.18260802 0.00000000
0.21316947 0.17737374 0.35594547
0.20947616 0.17442945 0.56885958
0.20258197 0.16893344 0.96629936
0.19880658 0.16592371 1.00000000
0.19371915 0.31441379 0.00000000
0.18715325 0.30917951 0.34465128
0.18345992 0.30623522 0.55756539
0.17656574 0.30073920 0.95500511
0.17279036 0.29772949 1.00000000
0.12867856 0.64392817 0.00000000
0.12450747 0.63919324 0.31352171
0.12270684 0.63664359 0.52414852
0.11934562 0.63188416 0.91731864
0.11750495 0.62927783 1.00000000
0.08965652 1.00000000 0.00000000
0.08645535 1.00000000 0.23130350
0.08465469 1.00000000 0.44193026
0.08129350 1.00000000 0.83510041
0.07945283 1.00000000 1.00000000
0.54304570 0.00000000 0.00000000
0.53647983 0.00000000 0.36592412
0.53278649 0.00000000 0.57883817
0.52589226 0.00000000 0.97627789
0.52211690 0.00000000 1.00000000
0.50483429 0.17047037 0.00000000
0.49826843 0.16523607 0.34933579
0.49457514 0.16229178 0.56224990
0.48768094 0.15679577 0.95968956
0.48390552 0.15378606 1.00000000
0.47881812 0.30227616 0.00000000
0.47225222 0.29704183 0.33804160
0.46855891 0.29409754 0.55095571
0.46166474 0.28860155 0.94839543
0.45788935 0.28559181 1.00000000
0.42061004 0.63321513 0.00000000
0.41740888 0.62868237 0.29748288
0.41560823 0.62613267 0.50810969
0.41224700 0.62137324 0.90127981
0.41040635 0.61876690 1.00000000
0.38255793 1.00000000 0.00000000
0.37935677 1.00000000 0.21526457
0.37755609 1.00000000 0.42589143
0.37419489 1.00000000 0.81906152
0.37235424 1.00000000 1.00000000
1.00000000 0.00000000 0.00000000
1.00000000 0.00000000 0.35176048
1.00000000 0.00000000 0.56467462
1.00000000 0.00000000 0.96211421
1.00000000 0.00000000 1.00000000
1.00000000 0.14446110 0.00000000
1.00000000 0.13922681 0.33517215
1.00000000 0.13628252 0.54808623
1.00000000 0.13078649 0.94552594
1.00000000 0.12777680 1.00000000
1.00000000 0.27626687 0.00000000
1.00000000 0.27103260 0.32387796
1.00000000 0.26808828 0.53679210
1.00000000 0.26259229 0.93423182
1.00000000 0.25977990 1.00000000
1.00000000 0.61069179 0.00000000
1.00000000 0.60615903 0.26311392
1.00000000 0.60360932 0.47374073
1.00000000 0.59884989 0.86691087
1.00000000 0.59624362 1.00000000
1.00000000 1.00000000 0.00000000
1.00000000 1.00000000 0.18089572
1.00000000 1.00000000 0.39152250
1.00000000 1.00000000 0.78469259
1.00000000 1.00000000 1.00000000
